X:1
T:Title
%%score { ( 1 3 ) | ( 2 4 ) }
L:1/8
M:6/8
K:F
V:1 treble nm="Grand Piano"
V:3 treble 
V:2 bass 
V:4 bass 
V:1
 z3 z2[Q:1/4=96] C | A2 A G2 F | F2 E E2 [EB] | [EB]2 E F2 G |[M:5/8] A-A- A3 |[M:1/8] c | %6
[M:3/4] c2 c B2 A |[M:7/8] [DG]2 [DG] [DB]3 D |[M:3/4] C2 F F2 E |[M:5/8] F-F- F3 |[M:1/8] c | %11
[M:3/4] [Ec]2 [EG] [EG]2 [Ec] | c2 A A2 A | G2 G A2 =B | c2- [Fc-] [Gc]3 |[M:1/8] [Ec] | %16
[M:3/4] [Fc]2 [FA] [Af]2 [ce] |[M:7/8] [ce]2 d d3 d |[M:3/4] c2 [FA] [FA]2 G |[M:5/8] F-F- F3 |] %20
V:2
 z3 z2 [F,A,] | [F,CF]2 [F,CF] [F,B,C]2 [F,A,C] | [C,A,C]2 [C,G,C] [C,G,C]2 [C,G,] | %3
 [C,C]2 [B,C] [A,C]2 [G,CE] |[M:5/8] [F,CF]-[F,CF]- [F,CF]3 |[M:1/8] [F,A,F] | %6
[M:3/4] [F,A,F]2 [F,A,F] [F,DF]2 [F,C_E] |[M:7/8] [B,,B,]2 [B,,B,] [B,,F,]3 [B,,F,B,] | %8
[M:3/4] [C,F,A,]2 [C,A,C] [C,A,C]2 [C,B,C] |[M:5/8] [F,A,C]-[F,A,C]- [F,A,C]3 |[M:1/8] [F,A,F] | %11
[M:3/4] [C,G,]2 [C,C] [C,C]2 [C,B,] | [F,A,F]2 [F,CF] [F,CF]2 [F,CF] | %13
 [G,CE]2 [G,CE] [G,=B,F]2 [G,DF] | z G, A, B,3 |[M:1/8] [C,B,] | %16
[M:3/4] [F,A,]2 [F,C] [F,C]2[K:treble] [A,F] |[M:7/8] [B,F]2 [B,FB] [B,FB]3 [B,F_A] | %18
[M:3/4] [CFA]2[K:bass] [C,C] [C,C]2 [C,B,C] |[M:5/8] [F,A,C]-[F,A,C]- [F,A,C]3 |] %20
V:3
 x6 | x6 | x6 | x6 |[M:5/8] x5 |[M:1/8] x |[M:3/4] x6 |[M:7/8] x7 |[M:3/4] x6 |[M:5/8] x5 | %10
[M:1/8] x |[M:3/4] x6 | x6 | x6 | .[CE]2 z2 z2 |[M:1/8] x |[M:3/4] x6 |[M:7/8] x7 |[M:3/4] x6 | %19
[M:5/8] x5 |] %20
V:4
 x6 | x6 | x6 | x6 |[M:5/8] x5 |[M:1/8] x |[M:3/4] x6 |[M:7/8] x7 |[M:3/4] x6 |[M:5/8] x5 | %10
[M:1/8] x |[M:3/4] x6 | x6 | x6 | C,6 |[M:1/8] x |[M:3/4] x5[K:treble] x |[M:7/8] x7 | %18
[M:3/4] x2[K:bass] x4 |[M:5/8] x5 |] %20

